X:1327
L:1/8
M:9/8
K:Edor
 Bee def g2 g | Bee ege dBA | Bee def g2 g | gge ege dBA || B2 A GAB G2 A | BAB GAB dBA | 
 BAB A2 B G2 A | Bee ege dBA ||

